X:1
T:Title
%%score { ( 1 4 ) | ( 2 3 ) }
L:1/8
Q:1/4=110
M:4/4
K:G
V:1 treble nm="Grand Piano"
V:4 treble 
V:2 treble 
V:3 treble 
V:1
 G3 A B2 B2 | [Ac]2 [Fd]2 B4 | d3 e d2 [DGB]2 | [DFA]4 [DGB]4 | [B,DG]3 [CDA] [DGB]2 [DGB]2 | %5
w: Robert~Lowry * * *|||||
 [DAc]2 [DFd]2 B4 | d3 e d2 [DGB]2 | [CFA]4 [B,G]4 | [B,EG]3 [G,B,E] [G,EG]2 [EA]2 | %9
w: ||||
 [^DB]2 [DB]2 [EB]4 | [EA]3 [CE] [EA]2 [EB]2 | z4 c2 z2 | d3 B [CFA]2 [B,G]2 | %13
w: ||||
 [CEG]2 [EGc]2 G2- [Gd]2 | e3 d B2 [B,DG]2 | [CDA]4 [B,DG]4 |] %16
w: |||
V:2
 [G,B,D]3 [G,CD] [G,DG]2 [G,DG]2 | [F,D]2 [D,D]2[K:treble] [G,DG]4 | B,4 z4[K:bass] | D,4 G,,4 | %4
 G,3 G, G,2 G,2 | F,2 D,2[K:treble] [G,DG]4 | B,4 z4[K:bass] | D,4 G,,4 | E,3 E, E,2 [C,E,]2 | %9
 [B,,F,]2 [B,,F,]2 [E,G,]4 | [C,A,]3 [C,A,] [C,A,]2 [B,,^G,]2 | [A,,A,]2 [A,,A,]2 [D,A,]4 | %12
 [G,B,G]3 [G,DG][K:bass] D,2 E,2 | z4 G,4 | C4 z4[K:bass] | D,4 G,,4 |] %16
V:3
 x8 | x4[K:treble] x4 | [G,G]3- [G,-CG-] [G,B,G]2[K:bass] G,,2 | x8 | x8 | x4[K:treble] x4 | %6
 [G,G]3- [G,-CG-] [G,B,G]2[K:bass] G,,2 | x8 | x8 | x8 | x8 | x8 | x4[K:bass] x4 | C,2 C,2 z2 B,2 | %14
 [G,G]3- [G,-B,G-] [G,DG]2[K:bass] G,,2 | x8 |] %16
V:4
 x8 | x8 | x8 | x8 | x8 | x8 | x8 | x8 | x8 | x8 | x8 | [Ec]2 [Ec]2 F2- [Fd]2 | x8 | z4 [DB]2 z2 | %14
 x8 | x8 |] %16

